X: 5
T: The Dairy Maid
R: reel
M: 4/4
L: 1/8
K: Dmaj
B|AF~F2 AFBF|AFDE FE~E2|AF~F2 BFAF|EADE FDD2|AF~F2 AFBF|AFDE FEEF|~G3E F2AF|EADE FDD||A|~d3f ~a3g|f2ef dBBA|dcdf a2fa|bgeg fddA|dfaf g2ag|f2eg fBBA|dcdf g2ag|f2eg fdd||


Tune 1946	Setting 26774

